src/assets/img/svg/burger-menu-icons/instagram.svg

<svg width="13" height="13" viewBox="0 0 13 13" fill="none" xmlns="http://www.w3.org/2000/svg">
    <path
            d="M12.1304 4.31062C12.103 3.69025 12.0027 3.26374 11.859 2.89417C11.7107 2.50188 11.4826 2.15067 11.1838 1.8587C10.8918 1.56219 10.5383 1.33178 10.1505 1.18585C9.77884 1.04213 9.35457 0.941812 8.73419 0.914459C8.10918 0.88479 7.91076 0.87793 6.32557 0.87793C4.74037 0.87793 4.54195 0.88479 3.91926 0.912143C3.29889 0.939495 2.87239 1.03991 2.5029 1.18353C2.11053 1.33178 1.75931 1.55987 1.46734 1.8587C1.17083 2.15067 0.940516 2.5042 0.794488 2.89194C0.650776 3.26374 0.550454 3.68793 0.523102 4.3083C0.493433 4.93331 0.486572 5.13173 0.486572 6.71693C0.486572 8.30212 0.493433 8.50054 0.520785 9.12323C0.548138 9.74361 0.648549 10.1701 0.792261 10.5397C0.940516 10.932 1.17083 11.2832 1.46734 11.5752C1.75931 11.8717 2.11284 12.1021 2.50059 12.248C2.87239 12.3917 3.29657 12.492 3.91704 12.5194C4.53964 12.5468 4.73814 12.5536 6.32334 12.5536C7.90854 12.5536 8.10695 12.5468 8.72965 12.5194C9.35002 12.492 9.77652 12.3917 10.146 12.248C10.9307 11.9446 11.551 11.3243 11.8544 10.5397C11.998 10.1679 12.0985 9.74361 12.1258 9.12323C12.1532 8.50054 12.16 8.30212 12.16 6.71693C12.16 5.13173 12.1577 4.93331 12.1304 4.31062ZM11.0789 9.07761C11.0538 9.64783 10.958 9.95574 10.8782 10.161C10.682 10.6697 10.2783 11.0734 9.76966 11.2696C9.56439 11.3494 9.25424 11.4452 8.68626 11.4702C8.07042 11.4976 7.88573 11.5044 6.32788 11.5044C4.77004 11.5044 4.58303 11.4976 3.96942 11.4702C3.39921 11.4452 3.09129 11.3494 2.88602 11.2696C2.63289 11.176 2.40249 11.0277 2.21548 10.8339C2.02161 10.6445 1.87335 10.4165 1.7798 10.1633C1.69997 9.95806 1.60419 9.64783 1.57916 9.07993C1.55172 8.4641 1.54494 8.27931 1.54494 6.72147C1.54494 5.16363 1.55172 4.97661 1.57916 4.3631C1.60419 3.79288 1.69997 3.48497 1.7798 3.27969C1.87335 3.02648 2.02161 2.79617 2.2178 2.60907C2.40704 2.41519 2.63512 2.26694 2.88833 2.17347C3.09361 2.09364 3.40384 1.99787 3.97174 1.97274C4.58757 1.94539 4.77236 1.93853 6.33011 1.93853C7.89027 1.93853 8.07497 1.94539 8.68857 1.97274C9.25879 1.99787 9.5667 2.09364 9.77198 2.17347C10.0251 2.26694 10.2555 2.41519 10.4425 2.60907C10.6364 2.79839 10.7846 3.02648 10.8782 3.27969C10.958 3.48497 11.0538 3.79511 11.0789 4.3631C11.1063 4.97893 11.1131 5.16363 11.1131 6.72147C11.1131 8.27931 11.1063 8.46178 11.0789 9.07761Z"
            fill="#D0CFCF"/>
    <path
            d="M6.3255 3.71777C4.66965 3.71777 3.32617 5.06116 3.32617 6.7171C3.32617 8.37304 4.66965 9.71643 6.3255 9.71643C7.98144 9.71643 9.32483 8.37304 9.32483 6.7171C9.32483 5.06116 7.98144 3.71777 6.3255 3.71777ZM6.3255 8.66269C5.25127 8.66269 4.37991 7.79142 4.37991 6.7171C4.37991 5.64278 5.25127 4.77151 6.3255 4.77151C7.39982 4.77151 8.27109 5.64278 8.27109 6.7171C8.27109 7.79142 7.39982 8.66269 6.3255 8.66269Z"
            fill="#D0CFCF"/>
    <path
            d="M10.1437 3.59864C10.1437 3.98532 9.83014 4.29885 9.44337 4.29885C9.05669 4.29885 8.74316 3.98532 8.74316 3.59864C8.74316 3.21188 9.05669 2.89844 9.44337 2.89844C9.83014 2.89844 10.1437 3.21188 10.1437 3.59864Z"
            fill="#D0CFCF"/>
</svg>

<svg width="13" height="13" fill="none" xmlns="http://www.w3.org/2000/svg"><path d="M12.13 4.31c-.027-.62-.127-1.046-.271-1.416a2.85 2.85 0 00-.675-1.035 2.873 2.873 0 00-1.034-.673C9.78 1.042 9.355.942 8.734.914 8.11.884 7.911.878 6.326.878c-1.586 0-1.784.007-2.407.034-.62.027-1.047.128-1.416.272a2.849 2.849 0 00-1.036.675 2.875 2.875 0 00-.673 1.033c-.143.372-.244.796-.27 1.416-.03.625-.037.824-.037 2.409S.493 8.5.52 9.123c.027.62.128 1.047.271 1.417.149.392.379.743.675 1.035.292.297.646.527 1.034.673.371.144.796.244 1.416.271.623.028.821.035 2.406.035 1.586 0 1.784-.007 2.407-.035.62-.027 1.047-.127 1.416-.271a2.986 2.986 0 001.708-1.708c.144-.372.245-.796.272-1.417.027-.622.034-.82.034-2.406 0-1.585-.002-1.784-.03-2.406zM11.08 9.079c-.025.57-.121.878-.2 1.083-.197.509-.6.912-1.11 1.109-.205.08-.515.175-1.083.2-.616.028-.8.034-2.358.034s-1.745-.006-2.359-.034c-.57-.025-.878-.12-1.083-.2a1.798 1.798 0 01-.67-.436 1.815 1.815 0 01-.436-.67c-.08-.206-.176-.516-.2-1.084-.028-.616-.035-.8-.035-2.359 0-1.557.007-1.744.034-2.358.025-.57.121-.878.2-1.083.094-.254.243-.484.439-.67.189-.195.417-.343.67-.437.206-.08.516-.175 1.084-.2.616-.028.8-.034 2.358-.034 1.56 0 1.745.006 2.359.034.57.025.878.12 1.083.2.253.094.483.242.67.436.194.19.343.417.436.67.08.206.176.516.2 1.084.028.616.035.8.035 2.358s-.007 1.74-.034 2.357z" fill="#D0CFCF"/><path d="M6.325 3.718a3 3 0 10.002 6 3 3 0 00-.002-6zm0 4.945a1.946 1.946 0 11.001-3.892 1.946 1.946 0 010 3.892zM10.144 3.599a.7.7 0 11-1.4 0 .7.7 0 011.4 0z" fill="#D0CFCF"/></svg>
